_site/images/time-marker.svg

<svg enable-background="new 0 0 18 18" height="18" viewBox="0 0 18 18" width="18" xmlns="http://www.w3.org/2000/svg"><g fill="#f2ede7"><path d="m-.011 14.896c0 1.687 1.367 3.054 3.053 3.054h11.915c1.687 0 3.053-1.367 3.053-3.054v-6.25h-18.021z"/><path d="m15.208 1.952v-1.744h-2.874v1.718h-6.417v-1.718h-2.875v1.718c-1.686 0-3.053 1.367-3.053 3.053v.792h18.021v-.792c0-1.6-1.235-2.898-2.802-3.027z"/></g></svg>

<?xml version="1.0" encoding="utf-8"?>
<!-- Generator: Adobe Illustrator 16.0.4, SVG Export Plug-In . SVG Version: 6.00 Build 0)  -->
<!DOCTYPE svg PUBLIC "-//W3C//DTD SVG 1.1//EN" "http://www.w3.org/Graphics/SVG/1.1/DTD/svg11.dtd">
<svg version="1.1" id="Layer_1" xmlns="http://www.w3.org/2000/svg" xmlns:xlink="http://www.w3.org/1999/xlink" x="0px" y="0px"
	 width="18px" height="18px" viewBox="0 0 18 18" enable-background="new 0 0 18 18" xml:space="preserve">
<g>
	<path fill="#F2EDE7" d="M-0.011,14.896c0,1.687,1.367,3.054,3.053,3.054h11.915c1.687,0,3.053-1.367,3.053-3.054v-6.25H-0.011
		V14.896z"/>
	<path fill="#F2EDE7" d="M15.208,1.952V0.208h-2.874v1.718H5.917V0.208H3.042v1.718c-1.686,0-3.053,1.367-3.053,3.053v0.792H18.01
		V4.979C18.01,3.379,16.775,2.081,15.208,1.952z"/>
</g>
</svg>
